Simply-Red-Circles/scalable/apps/mathematica.svg

<svg xmlns="http://www.w3.org/2000/svg" width="48" height="48" viewBox="0 0 12.7 12.7"><path d="M6.48 1.59L5.42 3.24 3.74 4.52l-1.91.33 1.4 1.4.53 1.85-.34 2.13 1.94-.98 2.02.02 1.81.94-.04-2 .58-1.83 1.34-1.53-1.9-.35-1.74-1.24z" opacity=".5" fill="#a02c2c" fill-rule="evenodd"/><path d="M6.34.07a6.29 6.29 0 0 0-6.29 6.3 6.29 6.29 0 0 0 6.3 6.28 6.29 6.29 0 0 0 6.28-6.29A6.29 6.29 0 0 0 6.34.07zm-.01.94a5.4 5.4 0 0 1 5.4 5.4 5.4 5.4 0 0 1-5.4 5.41 5.4 5.4 0 0 1-5.41-5.4A5.4 5.4 0 0 1 6.32 1z" fill="#a02c2c"/><path d="M4.54 5.27l.15.42-.43.29-1.01 1.25 1.69.55h.4l.12.4.93 1.33.96-1.35.14-.42.37.02 1.68-.44-.92-1.17-.46-.33.15-.42.02-1.77-1.38.56-.58.4-.46-.36-1.43-.56z" opacity=".75" fill="#a02c2c" fill-rule="evenodd"/><path d="M3.53 2.47l.21 2.05.95 1.17-.06-1.8 1.74.7-.95-1.35zm2.84 2.11l1.81-.73-.02 1.97L9.17 4.5l.17-1.97-1.91.73zm1.79 1.24L9.3 7.26l-1.8.48 1.65.46 1.96-.23-1.38-1.59zm-.67 1.92L6.4 9.3 5.34 7.8l.02 1.46 1.01 1.86 1.01-1.84zm-2.15.04l-1.86-.6L4.7 5.69l-1.46.57-1.64 1.5 2.17.34z" fill="#a02c2c" fill-rule="evenodd"/></svg>

<?xml version="1.0" encoding="UTF-8" standalone="no"?>
<svg
   xmlns:dc="http://purl.org/dc/elements/1.1/"
   xmlns:cc="http://creativecommons.org/ns#"
   xmlns:rdf="http://www.w3.org/1999/02/22-rdf-syntax-ns#"
   xmlns:svg="http://www.w3.org/2000/svg"
   xmlns="http://www.w3.org/2000/svg"
   xmlns:sodipodi="http://sodipodi.sourceforge.net/DTD/sodipodi-0.dtd"
   xmlns:inkscape="http://www.inkscape.org/namespaces/inkscape"
   width="48"
   height="48"
   viewBox="0 0 12.7 12.7"
   version="1.1"
   id="svg10"
   sodipodi:docname="mathematica.svg"
   inkscape:version="0.92.4 (5da689c313, 2019-01-14)">
  <metadata
     id="metadata16">
    <rdf:RDF>
      <cc:Work
         rdf:about="">
        <dc:format>image/svg+xml</dc:format>
        <dc:type
           rdf:resource="http://purl.org/dc/dcmitype/StillImage" />
        <dc:title></dc:title>
      </cc:Work>
    </rdf:RDF>
  </metadata>
  <defs
     id="defs14" />
  <sodipodi:namedview
     pagecolor="#ffffff"
     bordercolor="#666666"
     borderopacity="1"
     objecttolerance="10"
     gridtolerance="10"
     guidetolerance="10"
     inkscape:pageopacity="0"
     inkscape:pageshadow="2"
     inkscape:window-width="1087"
     inkscape:window-height="480"
     id="namedview12"
     showgrid="false"
     inkscape:zoom="4.9166667"
     inkscape:cx="2.1355932"
     inkscape:cy="24"
     inkscape:window-x="0"
     inkscape:window-y="25"
     inkscape:window-maximized="0"
     inkscape:current-layer="svg10" />
  <path
     d="M 6.48,1.59 5.42,3.24 3.74,4.52 1.83,4.85 3.23,6.25 3.76,8.1 3.42,10.23 5.36,9.25 7.38,9.27 9.19,10.21 9.15,8.21 9.73,6.38 11.07,4.85 9.17,4.5 7.43,3.26 Z"
     id="path2"
     inkscape:connector-curvature="0"
     style="opacity:0.5;fill:#a02c2c;fill-rule:evenodd" />
  <path
     d="M 6.34,0.07 A 6.29,6.29 0 0 0 0.05,6.37 6.29,6.29 0 0 0 6.35,12.65 6.29,6.29 0 0 0 12.63,6.36 6.29,6.29 0 0 0 6.34,0.07 Z M 6.33,1.01 a 5.4,5.4 0 0 1 5.4,5.4 5.4,5.4 0 0 1 -5.4,5.41 A 5.4,5.4 0 0 1 0.92,6.42 5.4,5.4 0 0 1 6.32,1 Z"
     id="path4"
     inkscape:connector-curvature="0"
     style="fill:#a02c2c" />
  <path
     d="M 4.54,5.27 4.69,5.69 4.26,5.98 3.25,7.23 4.94,7.78 h 0.4 L 5.46,8.18 6.39,9.51 7.35,8.16 7.49,7.74 7.86,7.76 9.54,7.32 8.62,6.15 8.16,5.82 8.31,5.4 8.33,3.63 6.95,4.19 6.37,4.59 5.91,4.23 4.48,3.67 Z"
     id="path6"
     inkscape:connector-curvature="0"
     style="opacity:0.75;fill:#a02c2c;fill-rule:evenodd" />
  <path
     d="M 3.53,2.47 3.74,4.52 4.69,5.69 4.63,3.89 6.37,4.59 5.42,3.24 Z M 6.37,4.58 8.18,3.85 8.16,5.82 9.17,4.5 9.34,2.53 7.43,3.26 Z M 8.16,5.82 9.3,7.26 7.5,7.74 9.15,8.2 11.11,7.97 9.73,6.38 Z M 7.49,7.74 6.4,9.3 5.34,7.8 5.36,9.26 6.37,11.12 7.38,9.28 Z M 5.34,7.78 3.48,7.18 4.7,5.69 3.24,6.26 1.6,7.76 3.77,8.1 Z"
     id="path8"
     inkscape:connector-curvature="0"
     style="fill:#a02c2c;fill-rule:evenodd" />
</svg>
